!! G. F. Handel, Fugue No. 4 from "Sechs kleine Fugen" for keyboard, from
!! 'A Miscellaneous Collection of Instrumental Music by G.F. Handel'
!! Volume 1, Edwin Kalmus (New York) n.d. p.186; in three voices.
!! NOTE:  Double-stops occur in bars 4, 36, and 53.  Also note that
!!        two voicing abberations occurs in the 'soprano' voice between bars
!!        30 and 31 and at bar 41.  (In both cases Handel introduces a 'descant'
!!        voice above the soprano.)  Encoding 'fixes' have been introduced
!!        at these points to preserve the three-part encoding format.
!! NOTE:  This file has been validated through the double-entry method
!!        of error detection.
**kern	**kern	**kern
*M4/4	*M4/4	*M4/4
=1	=1	=1
1r	2.c	2cc
.	.	2ddT
.	4B	.
=2	=2	=2
1r	4.c	8ee
.	.	8ff
.	.	8gg
.	8d	8b
.	4.e	8cc
.	.	8g
.	.	4b-
.	8c	.
=3	=3	=3
1r	4f	8a
.	.	8bn
.	4e	2cc
.	2dT	.
.	.	4bT
=4	=4	=4
2C 2c	8e	4cc
.	8f	.
.	8g	2cc
.	8e	.
2D	8f	.
.	8e	.
.	8f	4b
.	8d	.
=5	=5	=5
8E	1g	4.cc
8F	.	.
8G	.	.
8BB	.	8dd
8C	.	4.ee
8GG	.	.
4BB-	.	.
.	.	8cc
=6	=6	=6
8AA	4cc	4ff
8BBn	.	.
2C	8r	4ee
.	8g	.
.	8f	2dd
.	8a	.
4BB	8g	.
.	8f	.
=7	=7	=7
4C	8e	4cc
.	8f#	.
4G	2g	4b
4C	.	8a
.	.	8ee
4D	4f#	8dd
.	.	8cc
=8	=8	=8
4E	4g	8b
.	.	8g
4r	2c	8a
.	.	8e
[2D	.	8f#
.	.	8d
.	4B	[4g
=9	=9	=9
2D]	2A	4g]
.	.	4f#T
4GG	4B	4g
[4G	4r	4b
=10	=10	=10
4G]	1r	2a
4F#	.	.
4.G	.	8b
.	.	8cc
.	.	8dd
8A	.	8f#
=11	=11	=11
8B	1r	4.g
8c	.	.
8d	.	.
8F#	.	8a
4.G	.	8b
.	.	8cc
.	.	8dd
8A	.	8f#
=12	=12	=12
8B	1r	4.g
8c	.	.
8d	.	.
8F#	.	8a
4G	.	8b
.	.	8cc
4Fn	.	8dd
.	.	8g
=13	=13	=13
2E	4r	2cc
.	2c	.
4F	.	2dd
4G	4B	.
=14	=14	=14
4C	4.c	8ee
.	.	8ff
4r	.	8gg
.	8d	8b
2r	8e	4.cc
.	8f	.
.	8g	.
.	8B	8dd
=15	=15	=15
1r	4.c	8ee
.	.	8ff
.	.	8gg
.	8d	8b
.	8e	4.cc
.	8f	.
.	8g	.
.	8B	8dd
=16	=16	=16
4c	4c	8ee
.	.	8ff
4B-	4r	8gg
.	.	8cc
8A	2f	4ff
8c	.	.
8A	.	[4ff
8F	.	.
=17	=17	=17
8B-	2g	4ff]
8G	.	.
8c	.	4ee
8C	.	.
4.F	8a	4ff
.	8b-	.
.	8cc	4r
8G	8e	.
=18	=18	=18
4.A	8f	4cc
.	8c	.
.	4e-	4r
8F	.	.
4B-	8d	8f
.	8en	8g
4A	[4f	4a
=19	=19	=19
4G	4f]	2b-
4C	4en	.
4F	4f	8a
.	.	8bn
4E	4g	4cc
=20	=20	=20
4D	4cc	4.ff
4G	4b	.
.	.	16ee
.	.	16dd
4C	4cc	4.ee
4c	[4g	.
.	.	8ee
=21	=21	=21
4B	8g]	4.dd
.	8f#	.
4E	4g#	.
.	.	16cc
.	.	16b
4AA	8a	4.cc
.	8e	.
4A	[4fn	.
.	.	8cc
=22	=22	=22
4G#	8f]	4.b
.	8d#	.
4Gn	[4e	.
.	.	8b
4F#	8e]	4.a
.	8c#	.
4Fn	[4dn	.
.	.	8a
=23	=23	=23
4E	4d]	8g#
.	.	8e
4F	4c	2a
4D	2B	.
4E	.	4g#
=24	=24	=24
4.AA	8r	2a
.	8A	.
.	8B	.
8G	8c#	.
8F	2d	[2d
8E	.	.
8D	.	.
8F	.	.
=25	=25	=25
8G	2e	4d]
8E	.	.
8A	.	4c#
8AA	.	.
4.D	8f	4d
.	8g	.
.	8a	4r
8E	8c#	.
=26	=26	=26
4.F	8d	1r
.	8A	.
.	4c	.
8F#	.	.
4G	8B	.
.	8c#	.
4Fn	[4d	.
=27	=27	=27
4E	8d]	4.g
.	8B	.
4E-	2cn	.
.	.	8a
[2D	.	8f#
.	.	8d
.	4B-	[4g
=28	=28	=28
4.D]	2A	4g]
.	.	2fn
8C	.	.
8BB	4G	.
8GG	.	.
4C	[4c	4e
=29	=29	=29
4F	4c]	2d
4G	4B	.
4.C	4c	8e
.	.	8f
.	4r	8g
8D	.	8B
=30	=30	=30
4.E	1r	8c
.	.	8G
.	.	4B-
8C	.	.
4F	.	8A
.	.	8Bn
4E	.	4c
=31	=31	=31
4D	4F	2f
4AA	4c	.
4BB-	4d	2g
4C	4e	.
=32	=32	=32
1FF	8f	8a
.	8g	8b-
.	8a	8cc
.	8e	8g
.	8f	4.a
.	8c	.
.	4e-	.
.	.	8a
=33	=33	=33
4BB-	8d	4b-
.	8en	.
4D	2f	4a
4BB-	.	2g
4C	4e	.
=34	=34	=34
4F	4f	8a
.	.	8bn
4E	8r	2cc
.	8g	.
4D	8f	.
.	8e	.
4G	8d	4b
.	8f	.
=35	=35	=35
4C	8e	2cc
.	8g	.
2c	8e	.
.	8c	.
.	2f	2dd
4B	.	.
=36	=36	=36
[4C 4c	4e	8ee
.	.	8ff
4C]	2c	8gg
.	.	8cc
2D	.	8ff
.	.	8ee
.	4B	8ff
.	.	8dd
=37	=37	=37
8E	4c	4.cc
8F	.	.
8G	4r	.
8BB	.	8dd
8C	2g	4.ee
8GG	.	.
4BB-	.	.
.	.	8cc
=38	=38	=38
8AA	4a	4ff
8BBn	.	.
2C	4g	4ee
.	8f	2dd
.	8a	.
4BB	8g	.
.	8f	.
=39	=39	=39
8C	8e	4.cc
8D	8f#	.
4E	2g	.
.	.	8b
4C	.	8a
.	.	8ee
4D	4f#	8dd
.	.	8cc
=40	=40	=40
4G	4g	8b
.	.	8g
4F	4r	8a
.	.	8b
2E	4r	8cc
.	.	8gg
.	[4c	8ee
.	.	8cc
=41	=41	=41
2D	4c]	8ff
.	.	8ee
.	2B-	8dd
.	.	8gg
4C	.	8ee
.	.	8cc
4A	4r	8ff
.	.	8ccc
=42	=42	=42
4G	8ff	4.bb-
.	16ee	.
.	16dd	.
4c	[4ee	.
.	.	8bb-
4F	8ee]	4.aa
.	8a	.
4f	[4dd	.
.	.	8aa
=43	=43	=43
4e	8dd]	4.gg
.	16cc#	.
.	16b	.
4A	4cc#	.
.	.	8gg
4.d	4.dd	8ff
.	.	8gg
.	.	[4aa
8c	8a	.
=44	=44	=44
4B	4dd	8aa]
.	.	8aa
4G	4b	8gg
.	.	8ff
4.c	4.g	8ee
.	.	8ff
.	.	[4gg
8B-	8g	.
=45	=45	=45
2A	4cc	4gg]
.	4r	8ee
.	.	8ff
2G	4r	8b
.	.	8g
.	4e	[4cc
=46	=46	=46
2G	2d	4cc]
.	.	4b
4r	8c	2cc
.	8d	.
[4C	8e	.
.	8c	.
=47	=47	=47
4C]	8f	2dd
.	8e	.
4BB	8d	.
.	8g	.
4.C	[2c	8ee
.	.	8ff
.	.	8gg
8D	.	8b
=48	=48	=48
4.E	2c_	8cc
.	.	8g
.	.	4b-
8C	.	.
4F	8c]	8a
.	8d	8bn
4E	8e	[4cc
.	8c	.
=49	=49	=49
2D	8f	4cc]
.	8e	.
.	8f	4b
.	8d	.
4.C	8e	4cc
.	8f	.
.	8g	4r
8D	8B	.
=50	=50	=50
8E	4.c	1r
8F	.	.
8G	.	.
8BB	8d	.
4.C	8e	.
.	8f	.
.	8g	.
8D	8B	.
=51	=51	=51
4.E	8c	4r
.	8G	.
.	4B-	4g
8C	.	.
8F	8A	4f
8G	8Bn	.
8A	[4c	4e
8E	.	.
=52	=52	=52
4F	4c]	2d
4G	4B	.
4.C	8c	8e
.	8d	8f
.	8e	4g
8E	8G	.
=53	=53	=53
4D	4A	4f
4G	4B	4d
2C 2G	2c	2e
====	====	====
*-	*-	*-
